X: 20572
T: A SMILE FROM THE GIRL OF MY HEART
C: Shield.
Q: "Moderate."
%R: hornpipe, reel
B: W. Hamilton "Universal Tune-Book" Vol. 2 Glasgow 1846 p.57 #2
S: http://s3-eu-west-1.amazonaws.com/itma.dl.printmaterial/book_pdfs/hamiltonvol2web.pdf
Z: 2016 John Chambers <jc:trillian.mit.edu>
M: C
L: 1/8
K: G
%%slurgraces yes
%%graceslurs yes
% - - - - - - - - - - - - - - - - - - - - - - - - -
DD |\
G2B>G A2F>D | G2B>d c2Ac |\
GdGB Ee (d/c/)(B/A/) | (G2F2) z2DD |\
G2B>G A2F>D | G2Be ^c2BA |\
dfAd BGE^C | (E2D2) z2z2 |]
d2B^G A2AB | c2de {G}F2zF |\
G2Gg (ed)(cB) | (B2A2) z2zD |\
G2B>G F2A>F | EGcE {E}D2ze |\
d2 (c/B/)(A/G/) G2AB | c3d e2dc |\
Bgde B2A>G | G4 z2d2 |\
d>edc B2dg |
{f2}e4 z2d2 |\
cBA^G Ae (d/c/)(B/A/) | {G2}F4 z2D2 |\
G2B>G F2A>F | EGcE {E}D2zc |\
d2 (c/B/)(A/G/) G2AB | (cd) e2- e2dc |\
Bgde B2A>G | {A2}G6 |]
% - - - - - - - - - - - - - - - - - - - - - - - - -

%%sep 1 1 500
%%sep 1 1 500

